X:2975
T:N\aar maidagen lokkar
C:anon.
O:Norway
Z:Transcribed by Frank Nordberg - http://www.musicaviva.com
F:http://abc.musicaviva.com/tunes/norway/naar-maidagen-lokkar/naar-maidagen-lokkar-1.abc
M:6/8
L:1/8
K:F
C|(F2A)G2A|F3D2D|C2FG2G| 
w:N\aar mai--da-gen lok-kar, og so-la skin s\aa varmt og vent, d\aa
A2cHf2d|c2AG2A|F3E2E|D2FE2D|A3-A2A|c2cB2G|
w:gjen-tun' ut-i flok-kar seg pyn-tar fint og pent;_ dei stun-dar ut fr\aa
^F2AG2B|E2EA2G|F2EF2D|C2FG2A|F3-HFz|]
w:hus og gard; med fe og geit og sau dei drar \aat fjel-la hu-gen drar._
W:
W:N\aar maidagen lokkar, og sola skin s\aa varmt og vent,
W:d\aa gjentun' uti flokkar seg pyntar fint og pent;
W:dei stundar ut fr\aa hus og gard;
W:med fe og geit og sau dei drar
W:\aat fjella hugen drar.
W:
W:
W:  From Musica Viva - http://www.musicaviva.com
W:  the Internet center for free sheet music downloads.
